X:17177
T:THE ROLLING HORNPIPE
B:John of the Greeny Cheshire Way
N: John Offord, Reproduced with permission
M:3/2
L:1/8
K:G
P:1
BG B2 AF A2 GABG |ABcA F2 B2 ABcA | B2 GABG A2 FGAF | dcBA GABG ABcA ||
P:2
defd  efge  f4   |cA F4   B2 ABcA | defd efge  g4   |dB G2 GABG ABcA ||
P:3
GABG  ABcA  GABG |A2 F4   c2 B2 A2| GABG ABcA  GABG |dB G2 GABG ABcA |]
